X:17
T:Smarts Fancy THO3.17
O:England;London
M:2/4
L:1/8
N:"?" missing close repeat mark in B music replaced
Z:vmp. Peter Dunk 2011.from a transcription by Fynn Titford-Mock 2006-9
B:Thompson's Compleat Collection of 200 Favourite Country Dances Vol. III.1765-72
Q:1/4=140
K:Eb
(ed)!wedge!eB|(AG)!wedge!F!wedge!E|(AG)!wedge!F!wedge!E|\
(DC)!wedge!B,!wedge!A,|(G,E)!wedge!D!wedge!A|\
(Gc)!wedge!B!wedge!E|(AG)!wedge!F!wedge!E|F2B,2|
(ede)!wedge!B|(AG)!wedge!F!wedge!E|(AG)!wedge!F!wedge!E|\
(DC)!wedge!B,!wedge!A,|(G,E)!wedge!D!wedge!A|\
(Gc)!wedge!B!wedge!E|(AG)!wedge!F!wedge!E|G2TF2|HE4:|
|:(EG)!wedge!B!wedge!e|g2 fe|f2 ed|cB=AB|=AG^FG|cdef|gedc|{B}=A2GF|
(b=a)!wedge!b!wedge!f|(ed)!wedge!c!wedge!B|\
(ed)!wedge!c!wedge!B|(=AG)!wedge!F!wedge!E|\
(DB)(=Ae)|(dg)!wedge!f!wedge!e|(dc)!wedge!B!wedge!=A|"_D.C."B2B,2"?":|

